X: 22181
T: La Belle Catherine
R: reel
M: 4/4
K: Dmajor
|:DDFA dfed|ccAc BBGB|A>BA>G FAdf|ggfa ec d2:|
M:6/4
fa a2 fdef gb b2|M:4/4
fa a2 fdef|gbea fd d2|
M:6/4
fa a2 fdef gb b2|M:4/4
fa a2 fdef|g2 faec d2:|
|:DDFA dfed|ccAc BBGB|A>BA>G FAdf|gg faec d2:|
|:DFAF DFAF|DGBG DGBG|DFAF DFAF|Acec Acec|
DFAF DFAF|DGBG DGBG|A>BA>G FAdf|gg(fa) ec d2:|

